!!!COM: Anonim
!!!CDT: [?]
!!!OTL@@LAT: Tollite plausus
!!!TXO: Latin
!!!ODT: 
!!!GTL: Hymnbook A
!!!ARL: Opactwo św. Wojciecha, Staniątki 
!!!voices:	1
**kern
*staff1
*I"[Canto]
*oclefC1
*clefG2
*k[b-]
!*met(c|)
*M2/1
=-
!LO:TX:Y=0:t=p. 27v
0a
=-
1a
1b-
=-
1a
1g
=-
1a
2a
2b-
=-
2b-
2a
2b-
2b-
=-
2a
2g
2g
2f
=-
0g
=-
0a
=-
1a
1b-
=-
1a
1g
=-
1a
2a
2b-
=-
2b-
2a
!LO:TX:Y=0:t=p. 28r
2b-
2b-
=-
2a
1g
2f
=-
1g
1a
=-
2cc
2a
2f
2g
=-
1a
1a
=-
1cc
2a
2f
=-
2g
2g
2a
2a
=-
2b-
2g
2g
2f
=-
1g
1dd
=-
2b-
!LO:TX:Y=0:t=p. 27v
2dd
2cc
2a
=-
1b-
2b-
2g
=-
2a
1b-
2a
=-
2b-
2b-
2dd
2dd
=-
2b-
2dd
2cc
2a
=-
1b-
1g
=-
2a
1b-
2a
=-
1b-
1dd
=-
1b-
1g
=-
1cc
1a
=-
!LO:TX:Y=0:t=p.28r
1dd
1b-
=-
1g
1cc
=-
1a
1b-
2g
2g
1a
=-
1f
1b-
=-
2g
2g
1a
=-
2f
1a
2b-
=-
2g
2g
1a
=-
2f
2b-
2g
2g
=-
1a
2f
1a
!LO:TX:Y=0:t=maybe a
2b-
2g
2g
=-
1f
0g
==
*-
!!title: @{OTL}, @{GTL}: @{pag}, ed. @{ENC}
!!!pag: pp. 27v-28r
!!!GTL: Hymnbook A
!!!EFL: 
!!!YEM: Creative Commons CC/BY/NC/SA 4.0
!!!ENC: Marcin Konik
!!!END: 2015-03-17
!!!EED: Marcin Konik
!!!EEV: 
!!!ONB: Encoded in vim by Marcin Konik
!!!CharacterEncoding: utf-8
!!!RDF**kern: l=long note in original notation
!!!RDF**kern: i=editorial accidental
!!muse2ps: z14jc180F
